X:1
T:Title
%%score { ( 1 3 4 ) | ( 2 5 6 ) }
L:1/8
M:4/4
K:Bb
V:1 treble nm="Grand Piano"
V:3 treble 
V:4 treble 
V:2 bass 
V:5 bass 
V:6 bass 
V:1
 z4 z2[Q:1/4=100] [B,D]>[CE] | [DF]2 [_D=E]>[DG] [=DF]2 [Fd]2 | [Fd]4 z4 | F2 G2 A2 c2 | %4
[M:3/4] [DB]6 |[M:1/4] [B,D]>[CE] |[M:4/4] [DF]2 [_D=E]>[DG] [=DF]2 [Fd]2 | [Fd]4 z4 | %8
 c2 [=EG]>[FA] [GB]2 [Ec]2 |[M:3/4] [Ec]6 |[M:1/4] [Fd]>[=E_d] | %11
[M:4/4] [Ec]2 [Ge]>[Ge] [Fd]2 [Ec]2 | [Ec]>[DB] [DF]4 [DB]>[FA] | G2 ^F>G [=Ed]2 [EG]2 | %14
[M:3/4] c6 |[M:1/4] D>[CE] |[M:4/4] [DF]2 [_D=E]>[DG] [=DF]2 [Fd]2 | d4 z4 | z4 d2 c2 | %19
[M:3/4] [DB]6 |] %20
V:2
 z4 z2 [B,,F,]>[B,,F,] | [B,,B,]2 [B,,B,]>[B,,B,] [B,,B,]2 [B,,B,]2 | [F,A,]2 z E [B,,F,]2 z2 | %3
 [F,D]2 [F,_D=E]2 [F,C_E]2 [F,A,E]2 |[M:3/4] [B,,F,]6 |[M:1/4] [B,,F,]>[B,,F,] | %6
[M:4/4] [B,,B,]2 [B,,B,]>[B,,B,] [B,,B,]2 [B,,B,]2 | [F,A,]2 z E [B,,F,]2 z2 | %8
 z2 [C,C]>[C,C] [C,C]2 [C,B,]2 |[M:3/4] [F,A,]6 |[M:1/4] [B,,B,]>[B,,B,] | %11
[M:4/4] [F,A,]2 [F,A,]>[F,A,] [F,A,]2 [F,A,]2 | [B,,B,]>[B,,B,] [B,,B,]4 [B,,B,]>[D,B,] | %13
 [E,B,E]2 [E,B,E]>[E,B,E] [C,B,]2 [C,B,]2 |[M:3/4] [F,A,E]6 |[M:1/4] [B,,F,]>[B,,F,] | %16
[M:4/4] [B,,B,]2 [B,,B,]>[B,,B,] [B,,B,]2 [B,,B,]2 | [B,F]2 z ^F, [G,B,D]2 [E,B,F]>[E,B,E] | %18
 [F,B,D]2 [G,B,_D]>[F,B,=D] [F,F]2 .[F,A,E]2 |[M:3/4] [B,,F,]6 |] %20
V:3
 x8 | x8 | z2 z c [DB]2 D>G | x8 |[M:3/4] x6 |[M:1/4] x2 |[M:4/4] x8 | z2 z c [DB]2 A>B | x8 | %9
[M:3/4] x6 |[M:1/4] x2 |[M:4/4] x8 | x8 | x8 |[M:3/4] x6 |[M:1/4] x2 |[M:4/4] x8 | z2 z c B2 A>G | %18
 F2 =E>F z G, z F, |[M:3/4] x6 |] %20
V:4
 x8 | x8 | z2 A,2 z4 | x8 |[M:3/4] x6 |[M:1/4] x2 |[M:4/4] x8 | z2 A,2 z4 | x8 |[M:3/4] x6 | %10
[M:1/4] x2 |[M:4/4] x8 | x8 | x8 |[M:3/4] x6 |[M:1/4] x2 |[M:4/4] x8 | z2 E2 z4 | x8 |[M:3/4] x6 |] %20
V:5
 x8 | x8 | z2 F,2 z4 | x8 |[M:3/4] x6 |[M:1/4] x2 |[M:4/4] x8 | z2 F,2 z4 | x8 |[M:3/4] x6 | %10
[M:1/4] x2 |[M:4/4] x8 | x8 | x8 |[M:3/4] x6 |[M:1/4] x2 |[M:4/4] x8 | z2 A,2 z4 | x8 | %19
[M:3/4] x6 |] %20
V:6
 x8 | x8 | x8 | x8 |[M:3/4] x6 |[M:1/4] x2 |[M:4/4] x8 | x8 | x8 |[M:3/4] x6 |[M:1/4] x2 | %11
[M:4/4] x8 | x8 | x8 |[M:3/4] x6 |[M:1/4] x2 |[M:4/4] x8 | F,4 z4 | x8 |[M:3/4] x6 |] %20

